assets/logos/icons/laptop.svg

<svg height="24" viewBox="0 0 24 24" width="24" xmlns="http://www.w3.org/2000/svg"><path d="m1.99999995 16.0000001h19.99999995v2h-19.99999995zm4.00000002-3.0000001h12.00000003v-5.99999999h-12.00000003zm-.00000001-8h12.00000004c1.1 0 2 .9 2 2v8h-16.00000004v-8c0-1.1.9-2 2-2z" fill="#492f5c" fill-rule="evenodd"/></svg>

<svg xmlns="http://www.w3.org/2000/svg" xmlns:xlink="http://www.w3.org/1999/xlink" width="24" height="24" viewBox="0 0 24 24">
  <defs>
    <path id="laptop-a" d="M1.99999995,16.0000001 L21.9999999,16.0000001 L21.9999999,18.0000001 L1.99999995,18.0000001 L1.99999995,16.0000001 Z M5.99999997,13 L18,13 L18,7.00000001 L5.99999997,7.00000001 L5.99999997,13 Z M5.99999996,5 L18,5 C19.1,5 20,5.9 20,7 L20,15 L3.99999996,15 L3.99999996,7 C3.99999996,5.9 4.89999996,5 5.99999996,5 Z"/>
  </defs>
  <use fill="#492F5C" fill-rule="evenodd" xlink:href="#laptop-a"/>
</svg>
